src/assets/image/icons/quality.svg

<svg width="61" height="62" viewBox="0 0 61 62" fill="none" xmlns="http://www.w3.org/2000/svg">
<path d="M39.7188 22.2813C38.1164 22.2813 36.8125 23.5852 36.8125 25.1875C36.8125 26.7898 38.1164 28.0938 39.7188 28.0938C41.3211 28.0938 42.625 26.7898 42.625 25.1875C42.625 23.5852 41.3211 22.2813 39.7188 22.2813ZM39.7188 26.1563C39.184 26.1563 38.75 25.7223 38.75 25.1875C38.75 24.6528 39.184 24.2188 39.7188 24.2188C40.2535 24.2188 40.6875 24.6528 40.6875 25.1875C40.6875 25.7223 40.2535 26.1563 39.7188 26.1563ZM39.7188 18.4063C35.9803 18.4063 32.9375 21.4491 32.9375 25.1875C32.9375 28.9259 35.9803 31.9688 39.7188 31.9688C43.4572 31.9688 46.5 28.9259 46.5 25.1875C46.5 21.4491 43.4572 18.4063 39.7188 18.4063ZM39.7188 30.0313C37.0479 30.0313 34.875 27.8584 34.875 25.1875C34.875 22.5167 37.0479 20.3438 39.7188 20.3438C42.3896 20.3438 44.5625 22.5167 44.5625 25.1875C44.5625 27.8584 42.3896 30.0313 39.7188 30.0313ZM43.0445 2.98957L39.7188 0.773071L36.393 2.98957C33.4684 4.9387 29.6883 5.3756 26.3955 4.14045L19.375 1.50835V21.7572C19.375 34.8314 27.2199 46.4177 39.3593 51.275L39.7188 51.4184L40.0782 51.275C52.2176 46.4177 60.0625 34.8314 60.0625 21.7572V1.50835L53.0429 4.14142C49.7482 5.37657 45.9682 4.9387 43.0445 2.98957ZM58.125 4.30417V21.7572C58.125 33.9053 50.9136 44.6855 39.7188 49.3288C28.5239 44.6855 21.3125 33.9053 21.3125 21.7572V4.30417L25.7155 5.95492C29.5876 7.40513 34.0302 6.89267 37.4683 4.60157L39.7188 3.10195L41.9692 4.60157C45.4063 6.89267 49.848 7.40513 53.723 5.95492L58.125 4.30417ZM47.8969 8.71876C45.2319 8.71876 42.563 8.08907 40.1896 6.90332L39.7013 6.67663L39.2596 6.89751C36.0259 8.51241 32.2797 9.0801 28.7021 8.48529L23.25 7.57467V21.8318C23.25 32.4948 29.5624 42.1455 39.3312 46.4186L39.7188 46.5891L40.1063 46.4186C49.8751 42.1455 56.1875 32.4948 56.1875 21.8318V7.53688L51.955 8.38357C50.8439 8.60638 49.7056 8.71876 48.5702 8.71876H47.8969ZM46.3886 22.4237C46.7635 23.3294 47.5201 23.9533 48.4375 24.1509V26.2231C47.5201 26.4207 46.7625 27.0456 46.3886 27.9504C46.0137 28.8552 46.1067 29.8307 46.6162 30.6203L45.1515 32.085C44.3629 31.5754 43.3855 31.4824 42.4816 31.8574C41.5758 32.2323 40.952 32.9889 40.7543 33.9063H38.6822C38.4846 32.9889 37.8597 32.2313 36.9549 31.8574C36.0511 31.4834 35.0746 31.5764 34.285 32.085L32.8203 30.6203C33.3298 29.8317 33.4228 28.8552 33.0479 27.9504C32.673 27.0446 31.9164 26.4207 30.999 26.2231V24.1509C31.9164 23.9533 32.674 23.3285 33.0479 22.4237C33.4228 21.5189 33.3298 20.5433 32.8203 19.7538L34.285 18.289C35.0736 18.7986 36.0501 18.8897 36.9549 18.5167C37.8607 18.1418 38.4846 17.3852 38.6822 16.4678H40.7543C40.952 17.3852 41.5768 18.1428 42.4816 18.5167C43.3864 18.8916 44.3629 18.7986 45.1515 18.289L46.6162 19.7538C46.1067 20.5433 46.0137 21.5198 46.3886 22.4237ZM25.1875 21.8318V9.86285L28.3844 10.3957C31.8632 10.973 35.4795 10.5565 38.75 9.23801V14.5313H36.8125V15.8323C36.8125 16.4329 36.3543 16.6693 36.2148 16.7284C36.0753 16.7875 35.5841 16.9434 35.1588 16.5182L34.2385 15.5979L30.1291 19.7073L31.0494 20.6276C31.4737 21.0519 31.3168 21.5421 31.2596 21.6835C31.2005 21.823 30.9642 22.2813 30.3635 22.2813H29.0625V28.0938H30.3635C30.9642 28.0938 31.2005 28.552 31.2596 28.6915C31.3178 28.8329 31.4747 29.3221 31.0494 29.7474L30.1291 30.6677L34.2385 34.7772L35.1588 33.8569C35.5832 33.4316 36.0743 33.5885 36.2148 33.6466C36.3553 33.7048 36.8125 33.9421 36.8125 34.5427V35.8438H38.75V43.9832C30.4691 39.7469 25.1875 31.218 25.1875 21.8318ZM52.3348 10.2833L54.25 9.90063V21.8318C54.25 31.218 48.9684 39.7469 40.6875 43.9832V35.8438H42.625V34.5427C42.625 33.9421 43.0832 33.7057 43.2227 33.6466C43.3632 33.5885 43.8534 33.4316 44.2787 33.8569L45.199 34.7772L49.3084 30.6677L48.3881 29.7474C47.9638 29.3231 48.1207 28.8329 48.1779 28.6915C48.237 28.552 48.4733 28.0938 49.074 28.0938H50.375V22.2813H49.074C48.4733 22.2813 48.237 21.823 48.1779 21.6835C48.1197 21.5421 47.9628 21.0529 48.3881 20.6276L49.3084 19.7073L45.199 15.5979L44.2787 16.5182C43.8543 16.9425 43.3622 16.7855 43.2227 16.7284C43.0832 16.6693 42.625 16.4329 42.625 15.8323V14.5313H40.6875V9.2506C42.9718 10.1729 45.4363 10.6563 47.8969 10.6563H48.5693C49.8325 10.6563 51.0996 10.5303 52.3348 10.2833ZM1.9375 22.2813H15.5C16.5685 22.2813 17.4375 21.4123 17.4375 20.3438V6.78126C17.4375 5.71273 16.5685 4.84376 15.5 4.84376H1.9375C0.868969 4.84376 0 5.71273 0 6.78126V20.3438C0 21.4123 0.868969 22.2813 1.9375 22.2813ZM1.9375 6.78126H15.5L15.5019 20.3438H1.9375V6.78126ZM13.2787 10.3724L10.0886 13.5625L13.2787 16.7526L11.9088 18.1224L8.71875 14.9323L5.52866 18.1224L4.15884 16.7526L7.34894 13.5625L4.15884 10.3724L5.52866 9.0026L8.71875 12.1927L11.9088 9.0026L13.2787 10.3724ZM16.7516 24.6905C16.4135 24.4009 15.9795 24.2188 15.5 24.2188H1.9375C0.868969 24.2188 0 25.0877 0 26.1563V39.7188C0 40.7873 0.868969 41.6563 1.9375 41.6563H15.5C16.5685 41.6563 17.4375 40.7873 17.4375 39.7188V26.8954L19.1512 24.8397L17.6623 23.5988L16.7516 24.6905ZM15.5019 39.7188H1.9375V26.1563H15.5V26.1921L8.65384 34.4081L5.52866 31.2829L4.15884 32.6527L8.78366 37.2775L15.5 29.2194L15.5019 39.7188ZM17.6613 42.9728L16.7516 44.0646C16.4135 43.7759 15.9795 43.5938 15.5 43.5938H1.9375C0.868969 43.5938 0 44.4627 0 45.5313V59.0938C0 60.1623 0.868969 61.0313 1.9375 61.0313H15.5C16.5685 61.0313 17.4375 60.1623 17.4375 59.0938V46.2704L19.1512 44.2147L17.6613 42.9728ZM15.5019 59.0938H1.9375V45.5313H15.5V45.5671L8.65384 53.7831L5.52866 50.6579L4.15884 52.0277L8.78366 56.6525L15.5 48.5944L15.5019 59.0938ZM19.375 58.125H29.0625V60.0625H19.375V58.125ZM31 58.125H32.9375V60.0625H31V58.125ZM34.875 58.125H36.8125V60.0625H34.875V58.125ZM19.375 54.25H38.75V56.1875H19.375V54.25ZM31 50.375V52.3125H19.375V50.375H31Z" fill="url(#paint0_linear_43_2012)"/>
<defs>
<linearGradient id="paint0_linear_43_2012" x1="30.0313" y1="61.0313" x2="30.0313" y2="0.773071" gradientUnits="userSpaceOnUse">
<stop stop-color="#6582FD"/>
<stop offset="1" stop-color="#E13E91"/>
</linearGradient>
</defs>
</svg>

<svg xmlns="http://www.w3.org/2000/svg" width="61" height="62" fill="none"><path fill="url(#a)" d="M39.719 22.281a2.91 2.91 0 0 0-2.907 2.907 2.91 2.91 0 0 0 2.907 2.906 2.91 2.91 0 0 0 2.906-2.907 2.91 2.91 0 0 0-2.906-2.906m0 3.875a.97.97 0 1 1 0-1.938.97.97 0 0 1 0 1.938m0-7.75a6.79 6.79 0 0 0-6.782 6.782 6.79 6.79 0 0 0 6.782 6.78 6.79 6.79 0 0 0 6.781-6.78 6.79 6.79 0 0 0-6.781-6.782m0 11.625a4.85 4.85 0 0 1-4.844-4.843 4.85 4.85 0 0 1 4.844-4.844 4.85 4.85 0 0 1 4.843 4.843 4.85 4.85 0 0 1-4.843 4.844M43.044 2.99 39.72.773 36.393 2.99a11.13 11.13 0 0 1-9.998 1.15l-7.02-2.632v20.25c0 13.073 7.845 24.66 19.984 29.517l.36.143.36-.143c12.139-4.857 19.984-16.444 19.984-29.518V1.508l-7.02 2.633a11.13 11.13 0 0 1-9.998-1.151m15.081 1.314v17.453c0 12.148-7.211 22.928-18.406 27.572-11.195-4.644-18.406-15.424-18.406-27.572V4.304l4.403 1.65c3.872 1.451 8.314.939 11.752-1.352l2.25-1.5 2.251 1.5c3.437 2.29 7.879 2.803 11.754 1.353zM47.897 8.72a17.34 17.34 0 0 1-7.707-1.816l-.489-.226-.441.22a17.4 17.4 0 0 1-10.558 1.588l-5.452-.91v14.257A26.84 26.84 0 0 0 39.331 46.42l.388.17.387-.17a26.84 26.84 0 0 0 16.081-24.587V7.537l-4.232.847c-1.111.222-2.25.335-3.385.335zm-1.508 13.705a2.85 2.85 0 0 0 2.048 1.727v2.072a2.85 2.85 0 0 0-2.048 1.727 2.85 2.85 0 0 0 .227 2.67l-1.465 1.465a2.85 2.85 0 0 0-2.67-.228 2.85 2.85 0 0 0-1.727 2.05h-2.072a2.85 2.85 0 0 0-1.727-2.05 2.86 2.86 0 0 0-2.67.228L32.82 30.62c.51-.788.603-1.765.228-2.67a2.85 2.85 0 0 0-2.049-1.727v-2.072a2.85 2.85 0 0 0 2.049-1.727 2.85 2.85 0 0 0-.228-2.67l1.465-1.465c.789.51 1.765.6 2.67.228a2.85 2.85 0 0 0 1.727-2.05h2.072a2.85 2.85 0 0 0 1.728 2.05 2.85 2.85 0 0 0 2.67-.228l1.464 1.465a2.85 2.85 0 0 0-.227 2.67m-21.202-.592V9.862l3.197.534c3.48.577 7.096.16 10.366-1.158v5.293h-1.937v1.301c0 .6-.459.837-.598.896a.95.95 0 0 1-1.056-.21l-.92-.92-4.11 4.11.92.92a.95.95 0 0 1 .21 1.055.95.95 0 0 1-.896.598h-1.3v5.813h1.3c.601 0 .838.458.897.598a.95.95 0 0 1-.21 1.055l-.92.92 4.109 4.11.92-.92a.95.95 0 0 1 1.056-.21c.14.058.597.295.597.896v1.3h1.938v8.14c-8.28-4.236-13.562-12.765-13.562-22.151m27.148-11.549 1.915-.382v11.93a24.89 24.89 0 0 1-13.562 22.152v-8.14h1.937v-1.3c0-.6.458-.837.598-.896a.95.95 0 0 1 1.056.21l.92.92 4.11-4.11-.92-.92a.95.95 0 0 1-.211-1.055.95.95 0 0 1 .896-.598h1.301V22.28h-1.301a.95.95 0 0 1-.896-.598.95.95 0 0 1 .21-1.055l.92-.92-4.109-4.11-.92.92a.95.95 0 0 1-1.056.21.95.95 0 0 1-.598-.896v-1.3h-1.937V9.25a19.3 19.3 0 0 0 7.209 1.405h.672c1.264 0 2.53-.126 3.766-.373M1.938 22.281H15.5a1.94 1.94 0 0 0 1.938-1.937V6.78A1.94 1.94 0 0 0 15.5 4.844H1.938A1.94 1.94 0 0 0 0 6.78v13.563a1.94 1.94 0 0 0 1.938 1.937m0-15.5H15.5l.002 13.563H1.938zm11.34 3.591-3.19 3.19 3.19 3.19-1.37 1.37-3.19-3.19-3.19 3.19-1.37-1.37 3.19-3.19-3.19-3.19 1.37-1.37 3.19 3.19 3.19-3.19zm3.474 14.319a1.92 1.92 0 0 0-1.252-.472H1.938A1.94 1.94 0 0 0 0 26.156V39.72a1.94 1.94 0 0 0 1.938 1.937H15.5a1.94 1.94 0 0 0 1.938-1.937V26.895l1.713-2.055-1.489-1.241zm-1.25 15.028H1.938V26.156H15.5v.036l-6.846 8.216-3.125-3.125-1.37 1.37 4.625 4.625 6.716-8.059zm2.16 3.254-.91 1.092a1.92 1.92 0 0 0-1.252-.471H1.938A1.94 1.94 0 0 0 0 45.53v13.563a1.94 1.94 0 0 0 1.938 1.937H15.5a1.94 1.94 0 0 0 1.938-1.937V46.27l1.713-2.055zm-2.16 16.12H1.938v-13.56H15.5v.036l-6.846 8.216-3.125-3.125-1.37 1.37 4.625 4.625 6.716-8.059zm3.873-.968h9.688v1.938h-9.688zm11.625 0h1.938v1.938H31zm3.875 0h1.938v1.938h-1.938zm-15.5-3.875H38.75v1.938H19.375zM31 50.375v1.938H19.375v-1.938z"/><defs><linearGradient id="a" x1="30.031" x2="30.031" y1="61.031" y2=".773" gradientUnits="userSpaceOnUse"><stop stop-color="#6582FD"/><stop offset="1" stop-color="#E13E91"/></linearGradient></defs></svg>
